storage/app/icons/phosphoricons/thin/frame-corners-thin.svg

<svg xmlns="http://www.w3.org/2000/svg" fill="currentColor" viewBox="0 0 256 256"><path d="M196 80v32a4 4 0 0 1-8 0V84h-28a4 4 0 0 1 0-8h32a4 4 0 0 1 4 4M96 172H68v-28a4 4 0 0 0-8 0v32a4 4 0 0 0 4 4h32a4 4 0 0 0 0-8M228 56v144a12 12 0 0 1-12 12H40a12 12 0 0 1-12-12V56a12 12 0 0 1 12-12h176a12 12 0 0 1 12 12m-8 0a4 4 0 0 0-4-4H40a4 4 0 0 0-4 4v144a4 4 0 0 0 4 4h176a4 4 0 0 0 4-4Z"/></svg>

<svg xmlns="http://www.w3.org/2000/svg" viewBox="0 0 256 256" fill="currentColor"><path d="M196,80v32a4,4,0,0,1-8,0V84H160a4,4,0,0,1,0-8h32A4,4,0,0,1,196,80ZM96,172H68V144a4,4,0,0,0-8,0v32a4,4,0,0,0,4,4H96a4,4,0,0,0,0-8ZM228,56V200a12,12,0,0,1-12,12H40a12,12,0,0,1-12-12V56A12,12,0,0,1,40,44H216A12,12,0,0,1,228,56Zm-8,0a4,4,0,0,0-4-4H40a4,4,0,0,0-4,4V200a4,4,0,0,0,4,4H216a4,4,0,0,0,4-4Z"/></svg>
